X:2
T:Tour part 2
M:4/4
L:1/8
K:B minor
|: BA Bc B2 AB | c3d c2 dc | BA Bc B2 AB |[1 c2 d2 c4 :|[2 c2 d2 c2 B2 ||
|: e3d c2 B2 | e2 d2 c4 | BA Bc d2 cB | d2 c2 B4 :|



